assets/symbols/mulberry/some.svg

<svg height="850.394" viewBox="0 0 850.394 850.394" width="850.394" xmlns="http://www.w3.org/2000/svg"><path d="m427.641 301.433.017 111.917-111.931.017-.017-111.917z" fill="#efdcef"/><path d="m315.719 301.442h111.931v111.917h-111.931z" fill="none" stroke="#231f20" stroke-width="19.408"/><path d="m0 0h850.394v850.394h-850.394z" fill="none"/><path d="m230.998 179.294.018 111.917-111.931.018-.018-111.917z" fill="#efdcef"/><path d="m119.075 179.302h111.931v111.917h-111.931z" fill="none" stroke="#231f20" stroke-width="19.408"/><path d="m397.342 85 .017 111.916-111.931.018-.017-111.917z" fill="#efdcef"/><path d="m285.419 85.008h111.931v111.917h-111.931z" fill="none" stroke="#231f20" stroke-width="19.408"/><path d="m0 0h850.394v850.394h-850.394z" fill="none"/><path d="m546.865 587.699h100.339v98.34h-100.339z" fill="none"/><g fill="#5668af"><circle cx="546.867" cy="653.267" r="15.703"/><circle cx="546.862" cy="620.486" r="15.703"/><circle cx="580.304" cy="587.703" r="15.704"/><circle cx="613.75" cy="587.698" r="15.704"/><circle cx="647.201" cy="620.473" r="15.704"/><circle cx="647.206" cy="653.252" r="15.704"/><circle cx="613.764" cy="686.037" r="15.704"/><circle cx="580.318" cy="686.042" r="15.704"/><circle cx="546.858" cy="587.707" r="15.703"/><circle cx="647.195" cy="587.694" r="15.703"/><circle cx="647.21" cy="686.031" r="15.703"/><circle cx="546.872" cy="686.046" r="15.703"/></g><path d="m386.452 622.885h100.338v98.339h-100.338z" fill="none"/><circle cx="386.455" cy="688.452" fill="#5668af" r="15.704"/><circle cx="386.45" cy="655.671" fill="#5668af" r="15.704"/><circle cx="419.891" cy="622.887" fill="#5668af" r="15.704"/><circle cx="453.337" cy="622.882" fill="#5668af" r="15.704"/><circle cx="486.788" cy="655.657" fill="#5668af" r="15.703"/><circle cx="486.793" cy="688.438" fill="#5668af" r="15.703"/><circle cx="453.351" cy="721.222" fill="#5668af" r="15.703"/><circle cx="419.905" cy="721.227" fill="#5668af" r="15.703"/><circle cx="386.445" cy="622.893" fill="#5668af" r="15.703"/><circle cx="486.783" cy="622.877" fill="#5668af" r="15.703"/><circle cx="486.797" cy="721.217" fill="#5668af" r="15.703"/><circle cx="386.459" cy="721.231" fill="#5668af" r="15.703"/><path d="m516.61 341.17v185.41m41.53-45.03-41.68 45.9-41.67-45.98" fill="none" stroke="#000" stroke-linecap="round" stroke-linejoin="round" stroke-width="14"/></svg>

<svg xmlns="http://www.w3.org/2000/svg" width="850.394" height="850.394" viewBox="0 0 850.394 850.394" overflow="visible"><path fill="#efdcef" d="M427.641 301.433l.017 111.917-111.931.017-.017-111.917z"/><path fill="none" stroke="#231f20" stroke-width="19.408" d="M315.719 301.442H427.65v111.917H315.719z"/><path fill="none" d="M0 0h850.394v850.394H0z"/><path fill="#efdcef" d="M230.998 179.294l.018 111.917-111.931.018-.018-111.917z"/><path fill="none" stroke="#231f20" stroke-width="19.408" d="M119.075 179.302h111.931v111.917H119.075z"/><path fill="#efdcef" d="M397.342 85l.017 111.916-111.931.018-.017-111.917z"/><path fill="none" stroke="#231f20" stroke-width="19.408" d="M285.419 85.008H397.35v111.917H285.419z"/><path fill="none" d="M0 0h850.394v850.394H0z"/><path fill="none" d="M546.865 587.699h100.339v98.34H546.865z"/><circle cx="546.867" cy="653.267" r="15.703" fill="#5668af"/><circle cx="546.862" cy="620.486" r="15.703" fill="#5668af"/><circle cx="580.304" cy="587.703" r="15.704" fill="#5668af"/><circle cx="613.75" cy="587.698" r="15.704" fill="#5668af"/><circle cx="647.201" cy="620.473" r="15.704" fill="#5668af"/><circle cx="647.206" cy="653.252" r="15.704" fill="#5668af"/><circle cx="613.764" cy="686.037" r="15.704" fill="#5668af"/><circle cx="580.318" cy="686.042" r="15.704" fill="#5668af"/><circle cx="546.858" cy="587.707" r="15.703" fill="#5668af"/><circle cx="647.195" cy="587.694" r="15.703" fill="#5668af"/><circle cx="647.21" cy="686.031" r="15.703" fill="#5668af"/><circle cx="546.872" cy="686.046" r="15.703" fill="#5668af"/><g><path fill="none" d="M386.452 622.885H486.79v98.339H386.452z"/><circle cx="386.455" cy="688.452" r="15.704" fill="#5668af"/><circle cx="386.45" cy="655.671" r="15.704" fill="#5668af"/><circle cx="419.891" cy="622.887" r="15.704" fill="#5668af"/><circle cx="453.337" cy="622.882" r="15.704" fill="#5668af"/><circle cx="486.788" cy="655.657" r="15.703" fill="#5668af"/><circle cx="486.793" cy="688.438" r="15.703" fill="#5668af"/><circle cx="453.351" cy="721.222" r="15.703" fill="#5668af"/><circle cx="419.905" cy="721.227" r="15.703" fill="#5668af"/><circle cx="386.445" cy="622.893" r="15.703" fill="#5668af"/><circle cx="486.783" cy="622.877" r="15.703" fill="#5668af"/><circle cx="486.797" cy="721.217" r="15.703" fill="#5668af"/><circle cx="386.459" cy="721.231" r="15.703" fill="#5668af"/></g><path fill="none" stroke="#000" stroke-width="14" stroke-linecap="round" stroke-linejoin="round" d="M516.61 341.17v185.41M558.14 481.55l-41.68 45.9-41.67-45.98"/></svg>
